X:293
T: Alte Zecher - Melodie
N: A0336
O: Europa, Mitteleuropa, Deutschland
N: Trillers Singbuch 1555.
R: Romanze, Ballade, Lied, Trinklied
M: 3/2
L: 1/2
K: D
D | D2A | A2E | G=F2 | E2
E | D2E | =FGE | D2
D | D2A | A2E | G=F2 | E2
E | D2E | =FGE | D2
D | G2G | G2A | =cB2 | A2
B | =c2G | A2E | G=F2 | E2
E | G2G | D2E | =FD2 | =C2
c | BA2 | d=cB | =cB2 | A2

